X:193
T:Quick Step. JGi.193
M:2/4
L:1/8
Q:1/4=140
S:Joshua Gibbons MS,1823,Tealby,Lincs.
R:quick step
O:Tealby,Lincolnshire
Z:VMP/R.Greig, 2009
K:G
D|G2GA|B2Bc|d2gf|e2d2|edcB|cBAG|FGAB|A3D|
G2GA|B2Bc|d2gf|e2d2|gfed|Bd^ce|d2d2d2:|
e2ef|gfed|edcB|cBAG|F2FG|A2AB|cBAG|
GFED|G2GA|B2Bc|d2g>f|e2d2|edcB|cBAG|EGFA|G2:|

